priv/static/svgs/icons_new/sport-table-tennis.svg

<svg width="32" height="32" viewBox="0 0 32 32" fill="none" xmlns="http://www.w3.org/2000/svg">
<path d="M15.7298 18.1359C15.7298 18.1359 15.762 18.1522 15.8104 18.2011C16.8097 19.0163 17.39 20.2717 17.39 21.5761V26.0598C17.39 26.3043 17.5835 26.5 17.8252 26.5H19.5339C19.7756 26.5 19.9691 26.3043 19.9691 26.0598V21.5598C19.9691 20.2554 20.5494 19.0163 21.5487 18.1848C21.5971 18.1522 21.6293 18.1196 21.6293 18.1196M15.7298 18.1359C15.7298 18.1359 13.8921 17.712 13.1345 15.4457C12.9733 14.9891 12.9088 14.5163 12.8766 14.0435C12.7799 12.038 12.8766 5.5 18.6794 5.5C24.4823 5.5 24.579 12.038 24.4823 14.0435C24.4501 14.5163 24.3695 14.9891 24.2244 15.4457C23.4668 17.712 21.6292 18.1359 21.6292 18.1359L15.7298 18.1359ZM10.7094 20.7564C12.1119 21.0913 12.9803 22.5129 12.6492 23.9314C12.318 25.35 10.9126 26.2285 9.51017 25.8935C8.10772 25.5585 7.23926 24.137 7.57042 22.7184C7.90158 21.2999 9.30695 20.4214 10.7094 20.7564Z" stroke="black" stroke-miterlimit="10" stroke-linecap="round"/>
</svg>

<svg width="32" height="32" viewBox="0 0 32 32" fill="none" xmlns="http://www.w3.org/2000/svg">
  <symbol id="item" viewBox="0 0 32 32" stroke-width="1" fill="none">
    <path d="M15.73 18.136s.032.016.08.065c1 .815 1.58 2.07 1.58 3.375v4.484c0 .244.194.44.435.44h1.709a.436.436 0 0 0 .435-.44v-4.5c0-1.305.58-2.544 1.58-3.375.048-.033.08-.065.08-.065m-5.9.016s-1.837-.424-2.595-2.69c-.16-.457-.225-.93-.257-1.402-.097-2.006 0-8.544 5.802-8.544 5.803 0 5.9 6.538 5.803 8.543a5.967 5.967 0 0 1-.258 1.403c-.757 2.266-2.595 2.69-2.595 2.69h-5.9Zm-5.02 2.62c1.403.335 2.271 1.757 1.94 3.175-.331 1.419-1.736 2.297-3.139 1.962-1.402-.335-2.27-1.756-1.94-3.175.332-1.418 1.737-2.297 3.14-1.962Z" stroke="currentColor" stroke-miterlimit="10" stroke-linecap="round"/>
  </symbol>
</svg>
